X:1
T:Title
%%score { ( 1 3 ) | ( 2 4 ) }
L:1/8
M:6/4
K:A
V:1 treble nm="Grand Piano"
V:3 treble 
V:2 bass 
V:4 bass 
V:1
 z6 z4[Q:1/4=114] [CE]2 | [Ec]3 [DB] [CA]2 [Ec]3 [DB] [CA]2 | B6- B4 E2 | B3 B B2 B2 A2 G2 | %4
 [CA]6- [CA]4 [CE]2 | c3 B A2 c3 B A2 | B3 A F2 B4 [FA]>F | E E3 A2 G2 A2 B2 | %8
[M:5/4] [CA]2- [CA]2- [CA]6 |[M:1/4] E2 |[M:6/4] B12 | [Ec]12 | %12
 [Fd]3 [Fd] [Fd]2 [Fd]2 [Fe]2 [Fd]2 | c6- c4 cd | e3 d c2 c3 B A2 | [FB]3 [FA] [DF]2 [FB]4 [FA]>F | %16
 E2 E2 A2 G2 A2 B2 |[M:5/4] [CEA]2- [CEA]2- [CEA]6 |] %18
V:2
 z6 z4 [A,,A,]2 | [A,,A,]3 [A,,A,] [A,,A,]2 [A,,A,]3 [A,,A,] [A,,A,]2 | [E,G,E]6- [E,G,E]4 E,2 | %3
 [E,G,D]3 [E,G,D] [E,G,D]2 [E,G,D]2 [E,C]2 [E,B,]2 | [A,,E,]6- [A,,E,]4 [A,,A,]2 | %5
 [A,E]3 [A,D] [A,C]2 [A,E]3 [A,D] [A,C]2 | [D,F,D]3 [D,F,D] [D,F,D]2 [D,F,D]4 [D,A,]>[D,A,D] | %7
 [E,A,C] [E,A,C]3 [E,A,C]2 [E,B,]2 [E,C]2 [E,D]2 |[M:5/4] [A,,E,]2- [A,,E,]2- [A,,E,]6 | %9
[M:1/4] E,2 |[M:6/4] E12 | [A,,A,]4 A,2 .A,6 | [D,A,]3 [D,A,] [D,A,]2 [D,A,]2 [D,A,]2 [D,A,]2 | %13
 z6 z4 [A,E]2 | [A,CE]3 [A,B,E] [A,E]2 [A,EA]3 [A,DE][K:bass] [A,CE]2 | %15
 [D,D]3 [D,D] [D,A,]2 [D,D]4 [D,A,]>[D,A,D] | [E,A,C]2 [E,A,C]2 [E,CE]2 [E,B,E]2 [E,CE]2 [E,DE]2 | %17
[M:5/4] [A,,A,]2- [A,,A,]2- [A,,A,]6 |] %18
V:3
 x12 | x12 | x12 | x12 | x12 | x12 | x12 | x12 |[M:5/4] x10 |[M:1/4] x2 |[M:6/4] z4 G,2 G,4 E2 | %11
 x12 | x12 | x12 | x12 | x12 | x12 |[M:5/4] x10 |] %18
V:4
 x12 | x12 | x12 | x12 | x12 | x12 | x12 | x12 |[M:5/4] x10 |[M:1/4] x2 | %10
[M:6/4] [E,G,]4 E,2 E,4 [E,G,]2 | x12 | x12 | [A,E]6- [A,E]4 z B, | x10[K:bass] x2 | x12 | x12 | %17
[M:5/4] x10 |] %18

